static/img/helluvaOS Logo Light.svg

<svg width="204" height="65" viewBox="0 0 204 65" fill="none" xmlns="http://www.w3.org/2000/svg">
<path d="M15.3363 15.0938H22.008L20.6319 26.4614C22.4667 25.5566 24.3292 25.1041 26.2195 25.1041C28.8882 25.1041 30.6952 25.7404 31.6403 27.0129C32.5855 28.2571 32.9191 29.9961 32.6411 32.2301L30.8898 46.9062H24.218L25.8442 33.2481C26.0666 31.4949 25.3995 30.6183 23.8427 30.6183C22.4806 30.6183 21.1879 30.9859 19.9648 31.7211L18.1717 46.9062H11.5L15.3363 15.0938Z" fill="#F5F5F5"/>
<path d="M43.7247 38.5501H40.5556C40.3054 39.8792 40.5 40.8123 41.1394 41.3496C41.7788 41.8586 42.9324 42.1131 44.6004 42.1131C47.4081 42.1131 49.7849 41.6465 51.7308 40.7134L51.1053 46.0154C48.6312 47.0051 45.9625 47.5 43.0992 47.5C39.6522 47.5 37.192 46.5951 35.7186 44.7853C34.2731 42.9473 33.7727 40.1195 34.2175 36.3021C35.107 28.8368 38.8182 25.1041 45.3509 25.1041C48.4922 25.1041 50.73 25.6697 52.0644 26.8008C53.4265 27.9319 53.9686 29.6003 53.6906 31.8059C53.1624 36.3021 49.8405 38.5501 43.7247 38.5501ZM41.056 34.3933H44.3085C45.1703 34.3933 45.8374 34.1954 46.31 33.7995C46.7826 33.3753 47.0606 32.8663 47.144 32.2725C47.2274 31.6787 47.0745 31.1838 46.6853 30.7879C46.2961 30.392 45.6706 30.1941 44.8089 30.1941C42.6128 30.1941 41.3618 31.5938 41.056 34.3933Z" fill="#F5F5F5"/>
<path d="M63.5643 41.6041L62.8972 47.0758C62.3134 47.1889 61.674 47.2455 60.979 47.2455C59.0887 47.2455 57.6015 46.7506 56.5173 45.7609C55.4332 44.7429 55.0162 43.2442 55.2664 41.2648L58.4354 15.0938H65.0655L62.0215 40.3316C61.9659 40.7558 62.0493 41.081 62.2717 41.3072C62.4941 41.5051 62.925 41.6041 63.5643 41.6041Z" fill="#F5F5F5"/>
<path d="M74.4222 41.6041L73.755 47.0758C73.1713 47.1889 72.5319 47.2455 71.8369 47.2455C69.9466 47.2455 68.4593 46.7506 67.3752 45.7609C66.291 44.7429 65.8741 43.2442 66.1242 41.2648L69.2933 15.0938H75.9234L72.8794 40.3316C72.8238 40.7558 72.9072 41.081 73.1296 41.3072C73.352 41.5051 73.7828 41.6041 74.4222 41.6041Z" fill="#F5F5F5"/>
<path d="M95.2877 46.9062H91.2847L90.6175 45.3792C88.1712 46.7931 85.6693 47.5 83.1118 47.5C80.4431 47.5 78.6361 46.8779 77.691 45.6337C76.7458 44.3612 76.3983 42.608 76.6485 40.374L78.4416 25.6979H85.1133L83.4454 39.356C83.2508 41.1093 83.9318 41.9859 85.4886 41.9859C86.8785 41.9859 88.1573 41.6183 89.3248 40.883L91.1596 25.6979H97.8313L95.2877 46.9062Z" fill="#F5F5F5"/>
<path d="M110.208 47.2455H104.453L99.2826 25.6979H106.246L108.331 38.847L113.585 25.6979H120.549L110.208 47.2455Z" fill="#F5F5F5"/>
<path d="M131.766 41.0951L132.933 31.509C132.155 30.9152 131.21 30.6183 130.098 30.6183C128.652 30.6183 127.61 31.0848 126.97 32.018C126.331 32.9229 125.886 34.3509 125.636 36.3021C125.414 38.2815 125.511 39.7237 125.928 40.6285C126.345 41.5334 127.276 41.9859 128.722 41.9859C129.222 41.9859 129.722 41.9152 130.223 41.7738C130.723 41.6324 131.098 41.4769 131.349 41.3072L131.766 41.0951ZM140.314 25.6979L137.77 46.9062H133.767L132.808 45.2095C130.918 46.7365 128.583 47.5 125.803 47.5C123.078 47.5 121.16 46.6093 120.048 44.8278C118.936 43.018 118.603 40.1761 119.048 36.3021C119.52 32.428 120.535 29.6003 122.092 27.8188C123.648 26.009 125.789 25.1041 128.513 25.1041C131.265 25.1041 133.42 25.8676 134.976 27.3946L136.311 25.6979H140.314Z" fill="#F5F5F5"/>
<path d="M159.321 46.3548C157.57 47.1183 155.499 47.5 153.108 47.5C150.717 47.5 148.73 47.1041 147.145 46.3123C145.561 45.4923 144.421 44.3612 143.726 42.919C143.031 41.4486 142.586 39.7095 142.392 37.7018C142.197 35.6658 142.28 33.4319 142.642 31C142.948 28.4267 143.406 26.1928 144.018 24.2982C144.629 22.3753 145.477 20.6504 146.561 19.1234C147.673 17.5964 149.105 16.4512 150.856 15.6877C152.608 14.8959 154.679 14.5 157.069 14.5C159.46 14.5 161.448 14.91 163.032 15.7301C164.617 16.5219 165.757 17.653 166.452 19.1234C167.147 20.5656 167.591 22.3046 167.786 24.3406C168.008 26.3483 167.939 28.5681 167.577 31C167.244 33.5733 166.771 35.8213 166.16 37.7442C165.548 39.6388 164.686 41.3496 163.574 42.8766C162.49 44.4036 161.072 45.563 159.321 46.3548ZM160.447 23.0257C159.78 21.4422 158.418 20.6504 156.361 20.6504C154.303 20.6504 152.733 21.4563 151.649 23.0681C150.592 24.6517 149.842 27.2956 149.397 31C148.924 34.7044 149.036 37.3625 149.73 38.9743C150.425 40.5578 151.802 41.3496 153.859 41.3496C155.916 41.3496 157.472 40.5578 158.529 38.9743C159.585 37.3907 160.35 34.7326 160.822 31C161.267 27.2674 161.142 24.6093 160.447 23.0257Z" fill="#F5F5F5"/>
<path d="M181.825 27.5643C183.716 27.847 185.231 28.1581 186.37 28.4974C187.51 28.8085 188.539 29.3033 189.456 29.982C190.373 30.6324 190.985 31.509 191.291 32.6118C191.597 33.7147 191.652 35.1003 191.458 36.7686C190.596 43.9229 186.078 47.5 177.906 47.5C173.569 47.5 170.386 46.8496 168.357 45.5488L169.232 38.5925C171.818 40.2326 174.736 41.0527 177.989 41.0527C182.075 41.0527 184.258 39.8368 184.536 37.4049C184.675 36.2172 184.466 35.3689 183.91 34.8599C183.382 34.3509 182.339 33.9833 180.783 33.7571C176.835 33.2198 174.125 32.2442 172.652 30.8303C171.178 29.4165 170.622 27.1684 170.984 24.0861C171.345 21.0887 172.582 18.7416 174.695 17.045C176.807 15.3483 179.851 14.5 183.827 14.5C187.83 14.5 190.721 15.0231 192.5 16.0694L191.708 22.644C190.846 22.1915 189.651 21.7956 188.122 21.4563C186.593 21.117 185.078 20.9473 183.577 20.9473C179.963 20.9473 178.045 21.9936 177.822 24.0861C177.683 25.1889 177.906 25.9807 178.489 26.4614C179.073 26.9422 180.185 27.3098 181.825 27.5643Z" fill="#F5F5F5"/>
</svg>

<svg width="204" height="65" fill="none" xmlns="http://www.w3.org/2000/svg"><path d="M15.336 15.094h6.672L20.632 26.46c1.835-.904 3.697-1.357 5.587-1.357 2.67 0 4.476.636 5.421 1.909.946 1.244 1.28 2.983 1.001 5.217L30.89 46.906h-6.672l1.626-13.658c.223-1.753-.445-2.63-2.001-2.63-1.362 0-2.655.368-3.878 1.103l-1.793 15.185H11.5l3.836-31.812ZM43.725 38.55h-3.17c-.25 1.33-.055 2.262.584 2.8.64.509 1.793.763 3.461.763 2.808 0 5.185-.466 7.13-1.4l-.625 5.302c-2.474.99-5.142 1.485-8.006 1.485-3.447 0-5.907-.905-7.38-2.715-1.446-1.838-1.946-4.665-1.502-8.483.89-7.465 4.601-11.198 11.134-11.198 3.141 0 5.379.566 6.713 1.697 1.362 1.13 1.905 2.8 1.627 5.005-.529 4.496-3.85 6.744-9.966 6.744Zm-2.669-4.157h3.253c.861 0 1.528-.198 2.001-.593.473-.425.75-.934.834-1.527.083-.594-.07-1.09-.459-1.485-.389-.396-1.014-.594-1.876-.594-2.196 0-3.447 1.4-3.753 4.2ZM63.564 41.604l-.667 5.472c-.584.113-1.223.17-1.918.17-1.89 0-3.377-.495-4.462-1.485-1.084-1.018-1.5-2.517-1.25-4.496l3.168-26.171h6.63l-3.043 25.238c-.056.424.027.749.25.975.222.198.653.297 1.292.297ZM74.422 41.604l-.667 5.472a10.1 10.1 0 0 1-1.918.17c-1.89 0-3.378-.495-4.462-1.485-1.084-1.018-1.5-2.517-1.25-4.496l3.168-26.171h6.63L72.88 40.332c-.055.424.028.749.25.975.223.198.654.297 1.293.297ZM95.288 46.906h-4.003l-.667-1.527c-2.447 1.414-4.949 2.121-7.506 2.121-2.669 0-4.476-.622-5.421-1.866-.945-1.273-1.293-3.026-1.043-5.26l1.794-14.676h6.671l-1.668 13.658c-.194 1.753.487 2.63 2.044 2.63 1.39 0 2.668-.368 3.836-1.103l1.835-15.185h6.671l-2.543 21.208ZM110.208 47.245h-5.755l-5.17-21.547h6.963l2.085 13.149 5.254-13.15h6.964l-10.341 21.549ZM131.766 41.095l1.167-9.586c-.778-.594-1.723-.89-2.835-.89-1.446 0-2.488.466-3.128 1.399-.639.905-1.084 2.333-1.334 4.284-.222 1.98-.125 3.422.292 4.327.417.904 1.348 1.357 2.794 1.357.5 0 1-.07 1.501-.212.5-.142.875-.297 1.126-.467l.417-.212Zm8.548-15.397-2.544 21.208h-4.003l-.959-1.697c-1.89 1.527-4.225 2.291-7.005 2.291-2.725 0-4.643-.89-5.755-2.672-1.112-1.81-1.445-4.652-1-8.526.472-3.874 1.487-6.702 3.044-8.483 1.556-1.81 3.697-2.715 6.421-2.715 2.752 0 4.907.764 6.463 2.29l1.335-1.696h4.003ZM159.321 46.355c-1.751.763-3.822 1.145-6.213 1.145s-4.378-.396-5.963-1.188c-1.584-.82-2.724-1.95-3.419-3.393-.695-1.47-1.14-3.21-1.334-5.217-.195-2.036-.112-4.27.25-6.702.306-2.573.764-4.807 1.376-6.702.611-1.923 1.459-3.648 2.543-5.175a10.317 10.317 0 0 1 4.295-3.435c1.752-.792 3.823-1.188 6.213-1.188 2.391 0 4.379.41 5.963 1.23 1.585.792 2.725 1.923 3.42 3.393.695 1.443 1.139 3.182 1.334 5.218.222 2.007.153 4.227-.209 6.659-.333 2.573-.806 4.821-1.417 6.744-.612 1.895-1.474 3.606-2.586 5.133-1.084 1.527-2.502 2.686-4.253 3.478Zm1.126-23.33c-.667-1.583-2.029-2.375-4.086-2.375-2.058 0-3.628.806-4.712 2.418-1.057 1.584-1.807 4.228-2.252 7.932-.473 3.704-.361 6.362.333 7.974.695 1.584 2.072 2.376 4.129 2.376 2.057 0 3.613-.792 4.67-2.376 1.056-1.583 1.821-4.241 2.293-7.974.445-3.733.32-6.39-.375-7.974ZM181.825 27.564c1.891.283 3.406.594 4.545.933a9.214 9.214 0 0 1 3.086 1.485c.917.65 1.529 1.527 1.835 2.63.306 1.103.361 2.488.167 4.157-.862 7.154-5.38 10.731-13.552 10.731-4.337 0-7.52-.65-9.549-1.951l.875-6.956c2.586 1.64 5.504 2.46 8.757 2.46 4.086 0 6.269-1.216 6.547-3.648.139-1.188-.07-2.036-.626-2.545-.528-.51-1.571-.877-3.127-1.103-3.948-.537-6.658-1.513-8.131-2.927-1.474-1.413-2.03-3.662-1.668-6.744.361-2.997 1.598-5.344 3.711-7.041 2.112-1.697 5.156-2.545 9.132-2.545 4.003 0 6.894.523 8.673 1.57l-.792 6.574c-.862-.452-2.057-.848-3.586-1.188a20.93 20.93 0 0 0-4.545-.509c-3.614 0-5.532 1.047-5.755 3.14-.139 1.102.084 1.894.667 2.374.584.481 1.696.849 3.336 1.103Z" fill="#F5F5F5"/></svg>
